16x16/panel/qnapi-panel.svg

<svg height="16" width="16" xmlns="http://www.w3.org/2000/svg"><path d="m1.889 2a.88.88 0 0 0 -.889.875v9.125c0 .485.396.985.889 1h7.111l1.5 2 1.5-2h2.111c.492 0 .889-.515.889-1v-9.125a.88.88 0 0 0 -.889-.875zm2.111 3h8v1h-8zm0 2h8v1h-8zm0 2h5v1h-5z" fill="#bebebe"/></svg>

<svg xmlns="http://www.w3.org/2000/svg" width="16" height="16"><path d="M1.889 2A.88.88 0 0 0 1 2.875V12c0 .485.396.985.889 1H9l1.5 2 1.5-2h2.111c.492 0 .889-.515.889-1V2.875A.88.88 0 0 0 14.111 2zM4 5h8v1H4zm0 2h8v1H4zm0 2h5v1H4z" fill="currentColor" color="#bebebe"/></svg>
